X: 21
T:The Dublin Dance
% Nottingham Music Database
S:Bob McQuillen Jan 1977, via PR
M:4/4
L:1/4
K:D
A|"D"dA "A7"G/2F/2E/2G/2|"D"F"A7"A2d/2e/2|"D"f/2e/2d/2f/2 "A7"ec|"D"d3A|\
"D"dA "A7"G/2F/2E/2G/2|
"D"FA df|"E7"e/2f/2e/2d/2 cB|"A"A3d/2e/2|"D"ff "A"ef/2e/2|"D"dA2a|"G"ba gf|
"Em"e3"A7"d/2e/2|"D"ff "G"gf/2g/2|"D"af "A7"aa/2g/2|"D"fe/2d/2 "A7"ec|\
"D"d3a||
"D"f/2e/2d/2e/2 fg|fd2a|"Em"gf/2e/2 "A7"fe|"D"d3e|"D"f/2e/2d/2e/2 "A7"fg|
"Bm"fd2f|"Em"e/2f/2e/2f/2 gf|"A7"e3a|"D"f/2e/2d/2f/2 "A7"ea|\
"D"f/2e/2d/2f/2 "A"eA|
"G"Bc/2d/2 gf|"A"e3d/2e/2|"D"ff "A"ef/2e/2|"G"dB "D"AA/2A/2|"G"Bc/2d/2 "A7"ec|\
"D"d3||


